X: 36856
T: Ships In Full Sail, The
R: jig
M: 6/8
K: Gmajor
|:d3 dBG|e3 efg|d3 dBG|A3 ABc|
d3 dBG|e3 efg|dBG {B}AGA|BGG G3:|

